flaticon/education/open-book-6.svg

<svg xmlns="http://www.w3.org/2000/svg" width="32" height="32" viewBox="0 0 24 24">
    <path d="M5.792969 7.039062L9.515625 7.039062C9.765625 7.039062 9.929688 6.871094 9.929688 6.625 9.929688 6.375 9.765625 6.210938 9.515625 6.210938L5.792969 6.210938C5.542969 6.210938 5.378906 6.375 5.378906 6.625 5.378906 6.871094 5.542969 7.039062 5.792969 7.039062zM4.136719 9.105469L9.515625 9.105469C9.765625 9.105469 9.929688 8.941406 9.929688 8.691406 9.929688 8.445312 9.765625 8.277344 9.515625 8.277344L4.136719 8.277344C3.890625 8.277344 3.722656 8.445312 3.722656 8.691406 3.722656 8.941406 3.890625 9.105469 4.136719 9.105469zM4.136719 11.175781L7.863281 11.175781C8.109375 11.175781 8.277344 11.007812 8.277344 10.761719 8.277344 10.511719 8.109375 10.347656 7.863281 10.347656L4.136719 10.347656C3.890625 10.347656 3.722656 10.511719 3.722656 10.761719 3.722656 11.007812 3.890625 11.175781 4.136719 11.175781zM9.515625 12.417969L5.792969 12.417969C5.542969 12.417969 5.378906 12.582031 5.378906 12.832031 5.378906 13.078125 5.542969 13.242188 5.792969 13.242188L9.515625 13.242188C9.765625 13.242188 9.929688 13.078125 9.929688 12.832031 9.929688 12.582031 9.765625 12.417969 9.515625 12.417969zM4.136719 15.3125L9.515625 15.3125C9.765625 15.3125 9.929688 15.148438 9.929688 14.898438 9.929688 14.652344 9.765625 14.484375 9.515625 14.484375L4.136719 14.484375C3.890625 14.484375 3.722656 14.652344 3.722656 14.898438 3.722656 15.148438 3.890625 15.3125 4.136719 15.3125zM14.484375 9.105469L16.964844 9.105469C17.214844 9.105469 17.378906 8.941406 17.378906 8.691406 17.378906 8.445312 17.214844 8.277344 16.964844 8.277344L14.484375 8.277344C14.234375 8.277344 14.070312 8.445312 14.070312 8.691406 14.070312 8.941406 14.234375 9.105469 14.484375 9.105469zM14.484375 7.039062L17.378906 7.039062C17.628906 7.039062 17.792969 6.871094 17.792969 6.625 17.792969 6.375 17.628906 6.210938 17.378906 6.210938L14.484375 6.210938C14.234375 6.210938 14.070312 6.375 14.070312 6.625 14.070312 6.871094 14.234375 7.039062 14.484375 7.039062zM16.964844 14.484375L16.136719 14.484375C15.890625 14.484375 15.722656 14.652344 15.722656 14.898438 15.722656 15.148438 15.890625 15.3125 16.136719 15.3125L16.964844 15.3125C17.214844 15.3125 17.378906 15.148438 17.378906 14.898438 17.378906 14.652344 17.214844 14.484375 16.964844 14.484375zM14.484375 13.242188L16.964844 13.242188C17.214844 13.242188 17.378906 13.078125 17.378906 12.832031 17.378906 12.582031 17.214844 12.417969 16.964844 12.417969L14.484375 12.417969C14.234375 12.417969 14.070312 12.582031 14.070312 12.832031 14.070312 13.078125 14.234375 13.242188 14.484375 13.242188zM14.484375 11.175781L17.792969 11.175781C18.042969 11.175781 18.207031 11.007812 18.207031 10.761719 18.207031 10.511719 18.042969 10.347656 17.792969 10.347656L14.484375 10.347656C14.234375 10.347656 14.070312 10.511719 14.070312 10.761719 14.070312 11.007812 14.234375 11.175781 14.484375 11.175781zM14.484375 11.175781"/>
    <path d="M 23.585938 3.3125 L 19.613281 3.3125 L 19.035156 2.734375 C 18.953125 2.652344 18.867188 2.609375 18.785156 2.609375 C 16.511719 2.324219 14.160156 2.558594 12 3.3125 C 8.839844 2.195312 5.132812 2.210938 1.984375 3.3125 L 0.414062 3.3125 C 0.164062 3.3125 0 3.476562 0 3.726562 L 0 21.105469 C 0 21.355469 0.164062 21.519531 0.414062 21.519531 L 23.585938 21.519531 C 23.835938 21.519531 24 21.355469 24 21.105469 L 24 3.726562 C 24 3.476562 23.835938 3.3125 23.585938 3.3125 Z M 23.171875 4.140625 L 23.171875 19.449219 L 13.320312 19.449219 C 15.371094 18.808594 17.242188 18.566406 18.910156 18.707031 C 19.035156 18.707031 19.160156 18.664062 19.242188 18.582031 L 20.152344 17.671875 C 20.316406 17.507812 20.316406 17.257812 20.152344 17.09375 L 18.785156 15.726562 L 20.152344 14.359375 C 20.316406 14.195312 20.316406 13.949219 20.152344 13.78125 L 18.785156 12.417969 L 20.152344 11.050781 C 20.316406 10.886719 20.316406 10.636719 20.152344 10.472656 L 18.785156 9.105469 L 20.152344 7.742188 C 20.316406 7.574219 20.316406 7.328125 20.152344 7.160156 L 18.785156 5.796875 L 20.152344 4.429688 C 20.234375 4.347656 20.277344 4.265625 20.277344 4.140625 Z M 2.484375 19.304688 C 2.503906 19.296875 2.519531 19.289062 2.539062 19.28125 C 2.601562 19.257812 2.664062 19.234375 2.726562 19.210938 C 2.765625 19.195312 2.804688 19.183594 2.84375 19.167969 C 2.882812 19.15625 2.921875 19.140625 2.960938 19.128906 C 3.023438 19.105469 3.082031 19.085938 3.144531 19.066406 C 3.160156 19.0625 3.171875 19.058594 3.183594 19.054688 C 5.414062 18.359375 7.980469 18.511719 10.800781 19.449219 L 2.070312 19.449219 C 2.109375 19.449219 2.191406 19.449219 2.234375 19.410156 C 2.316406 19.375 2.398438 19.339844 2.484375 19.304688 Z M 18.578125 3.4375 L 19.28125 4.140625 L 17.917969 5.464844 C 17.75 5.628906 17.75 5.878906 17.917969 6.042969 L 19.28125 7.410156 L 17.917969 8.773438 C 17.75 8.941406 17.75 9.1875 17.917969 9.355469 L 19.28125 10.71875 L 17.917969 12.085938 C 17.75 12.25 17.75 12.5 17.917969 12.664062 L 19.28125 14.03125 L 17.917969 15.394531 C 17.75 15.5625 17.75 15.808594 17.917969 15.976562 L 19.28125 17.339844 L 18.828125 17.796875 C 16.882812 17.671875 14.730469 18.003906 12.414062 18.832031 L 12.414062 4.015625 C 14.359375 3.394531 16.511719 3.1875 18.578125 3.4375 Z M 11.585938 4.015625 L 11.585938 18.832031 C 11.441406 18.78125 11.296875 18.734375 11.152344 18.6875 C 7.871094 17.566406 4.894531 17.476562 2.3125 18.484375 C 2.230469 18.515625 2.148438 18.546875 2.070312 18.582031 L 2.070312 4.140625 C 2.109375 4.140625 2.152344 4.140625 2.191406 4.097656 C 5.132812 3.066406 8.605469 3.023438 11.585938 4.015625 Z M 0.828125 4.140625 L 1.242188 4.140625 L 1.242188 19.035156 C 1.242188 19.285156 1.40625 19.449219 1.65625 19.449219 L 0.828125 19.449219 Z M 23.171875 20.691406 L 0.828125 20.691406 L 0.828125 20.277344 L 23.171875 20.277344 Z M 23.171875 20.691406"/>
</svg>

<svg xmlns="http://www.w3.org/2000/svg" width="32" height="32" viewBox="0 0 24 24">
    <path d="M5.793 7.04h3.723c.25 0 .414-.169.414-.415 0-.25-.164-.414-.414-.414H5.793c-.25 0-.414.164-.414.414 0 .246.164.414.414.414zm0 0M4.137 9.105h5.379c.25 0 .414-.164.414-.414 0-.246-.164-.414-.414-.414h-5.38a.394.394 0 0 0-.413.414c0 .25.168.414.414.414zm0 0M4.137 11.176h3.726a.394.394 0 0 0 .414-.414c0-.25-.168-.414-.414-.414H4.137c-.246 0-.414.164-.414.414 0 .246.168.414.414.414zm0 0M9.516 12.418H5.793c-.25 0-.414.164-.414.414 0 .246.164.41.414.41h3.723c.25 0 .414-.164.414-.41 0-.25-.164-.414-.414-.414zm0 0M4.137 15.313h5.379c.25 0 .414-.165.414-.415 0-.246-.164-.414-.414-.414h-5.38a.394.394 0 0 0-.413.414c0 .25.168.415.414.415zm0 0M14.484 9.105h2.48c.25 0 .415-.164.415-.414 0-.246-.164-.414-.414-.414h-2.48c-.25 0-.415.168-.415.414 0 .25.164.414.414.414zm0 0M14.484 7.04h2.895c.25 0 .414-.169.414-.415 0-.25-.164-.414-.414-.414h-2.895c-.25 0-.414.164-.414.414 0 .246.164.414.414.414zm0 0M16.965 14.484h-.828a.394.394 0 0 0-.414.414c0 .25.168.415.414.415h.828c.25 0 .414-.165.414-.415 0-.246-.164-.414-.414-.414zm0 0M14.484 13.242h2.48c.25 0 .415-.164.415-.41 0-.25-.164-.414-.414-.414h-2.48c-.25 0-.415.164-.415.414 0 .246.164.41.414.41zm0 0M14.484 11.176h3.309c.25 0 .414-.168.414-.414 0-.25-.164-.414-.414-.414h-3.309c-.25 0-.414.164-.414.414 0 .246.164.414.414.414zm0 0"/>
    <path d="M23.586 3.313h-3.973l-.578-.579c-.082-.082-.168-.125-.25-.125A15.036 15.036 0 0 0 12 3.313c-3.16-1.118-6.867-1.102-10.016 0H.414c-.25 0-.414.164-.414.414v17.378c0 .25.164.415.414.415h23.172c.25 0 .414-.165.414-.415V3.727c0-.25-.164-.414-.414-.414zm-.414.828v15.308H13.32c2.051-.64 3.922-.883 5.59-.742.125 0 .25-.043.332-.125l.91-.91a.401.401 0 0 0 0-.578l-1.367-1.367 1.367-1.368a.401.401 0 0 0 0-.578l-1.367-1.363 1.367-1.367a.401.401 0 0 0 0-.578l-1.367-1.368 1.367-1.363a.406.406 0 0 0 0-.582l-1.367-1.363 1.367-1.367a.375.375 0 0 0 .125-.29zM2.484 19.305l.055-.024.188-.07c.039-.016.078-.027.117-.043.039-.012.078-.027.117-.04.062-.023.121-.042.184-.062.015-.003.027-.007.039-.011 2.23-.696 4.796-.543 7.617.394H2.07c.038 0 .12 0 .163-.039.082-.035.164-.07.25-.105zM18.578 3.438l.703.703-1.363 1.324a.395.395 0 0 0 0 .578l1.363 1.367-1.363 1.363a.4.4 0 0 0 0 .582l1.363 1.364-1.363 1.367a.395.395 0 0 0 0 .578l1.363 1.367-1.363 1.364a.4.4 0 0 0 0 .582l1.363 1.363-.453.457c-1.945-.125-4.098.207-6.414 1.035V4.016a14.707 14.707 0 0 1 6.164-.579zm-6.992.578v14.816c-.145-.05-.29-.098-.434-.145-3.28-1.12-6.257-1.21-8.84-.203a4.473 4.473 0 0 0-.242.098V4.141c.04 0 .082 0 .121-.043 2.942-1.032 6.414-1.075 9.395-.082zM.828 4.14h.414v14.894c0 .25.164.414.414.414H.828zm22.344 16.55H.828v-.414h22.344zm0 0"/>
</svg>
